X:1
T:Mahone Bay
L:1/8
M:6/8
I:linebreak $
K:G
V:1 treble 
V:1
|: G,2 B, D2 G | B3 BAG | A,2 B, C2 E | A2 A cBA | D2 F A2 d | f2 f gfe | ded cBA |1$ BGE DB,A, :|2 %8
 BGF G2 d |: gdB G2 B | D3 D2 d | gdB G2 B | A3 A2 B | cBA DFA | f2 f gfe |1$ ded cBA | BGE DGd :|2 %17
 dcd fdf | agf g2 || %19
